X: 163
T: 9. Les Drapeaux
T: les Drapeaux
B: Robert Landrin "Potpourri fran\,cois des contre-danse ancienne tel quil se danse chez la Reine ..." 1760 p.16 #3 dance 05 #9
S: http://memory.loc.gov/cgi-bin/query/D?musdibib:2:./temp/~ammem_EbRS:
Z: 2014 John Chambers <jc:trillian.mit.edu>
M: 2/2
L: 1/8
K: G
% - - - - - - - - - - - - - - - - - - - - - - - - -
!segno!B2c2 |\
d4 cBAB | G4 c2B2 | A2GF G2A2 | B2G2 B2c2 |\
d4 cBAB | G4 c2B2 | A2G2 BAGF | HG4 |]
[| "4.f. en rondeau"g2f2 |\
e2^d2 e2f2 | B4 e2^d2 | e2f2 g2ag | f2e2 g2f2 |\
e2^d2 e2f2 | B4 e2^d2 | e2f2 g2ag | f2e2 g2d2 |\
B2G2 g2d2 | B2G2 !segno!y|]
% - - - - - - - - - - - - - - - - - - - - - - - - -

%%newpage
%%sep 1 1 500
%%sep 1 1 500
